src/images/5.svg

<svg fill="none" height="33" viewBox="0 0 35 33" width="35" xmlns="http://www.w3.org/2000/svg"><path d="m2.21642 28.7499 2.23334.9334v-15.05l-4.050002 9.7666c-.683333 1.7.133333 3.65 1.816662 4.35zm32.49998-6.1666-8.2666-19.95005c-.5167-1.25-1.7334-2.016665-3.0167-2.049998-.4333 0-.8833.066667-1.3167.25l-12.28331 5.083328c-1.25.51667-2.01667 1.71667-2.05 3-.01667.45.06667.90001.25 1.33332l8.26671 19.95c.5166 1.2667 1.75 2.0334 3.05 2.05.4333 0 .8666-.0833 1.2833-.25l12.2667-5.0833c1.7-.7 2.5166-2.65 1.8166-4.3333zm-23.5833-12c-.9167 0-1.66668-.75005-1.66668-1.66672 0-.91666.74998-1.66666 1.66668-1.66666s1.6667.75 1.6667 1.66666c0 .91667-.75 1.66672-1.6667 1.66672zm-3.33334 18.3333c0 1.8333 1.5 3.3333 3.33334 3.3333h2.4167l-5.75004-13.9z" fill="#fff"/></svg>

<svg fill="none" height="33" width="35" xmlns="http://www.w3.org/2000/svg"><path d="M2.216 28.75l2.234.933v-15.05L.4 24.4c-.684 1.7.133 3.65 1.816 4.35zm32.5-6.167L26.45 2.633c-.517-1.25-1.734-2.016-3.017-2.05-.433 0-.883.067-1.317.25L9.833 5.917a3.331 3.331 0 0 0-2.05 3c-.017.45.067.9.25 1.333L16.3 30.2c.516 1.267 1.75 2.033 3.05 2.05.433 0 .866-.083 1.283-.25L32.9 26.917c1.7-.7 2.516-2.65 1.816-4.334zm-23.583-12c-.917 0-1.667-.75-1.667-1.666 0-.917.75-1.667 1.667-1.667S12.8 8 12.8 8.917c0 .916-.75 1.666-1.667 1.666zM7.8 28.917c0 1.833 1.5 3.333 3.333 3.333h2.417L7.8 18.35z" fill="#fff"/></svg>
